X:1
T:Title
%%score ( 1 2 ) { 3 | 4 }
L:1/8
Q:1/4=108
M:4/4
K:Ab
V:1 treble nm="Grand Piano, Soprano"
V:2 treble 
V:3 bass nm="Choir Pad, Red Hook, Perkins, 1868"
V:4 bass 
V:1
 [CA]2 [CA]2 [CA]3 [DB] | [Ec]2 [DB]2 [CA]2 [CE]2 | [DF]3 [DF] E2 [EA]2 | [EG]2 [EA]2 [EB]4 | %4
w: By~Theodore~Edson~Perkins,~1868 * * *||||
 [CA]2 [CA]2 [CA]3 [DB] | [Ec]2 [DB]2 [CA]2 [CE]2 | [DF]2 [FA]2 [Fd]2 [Ec]2 | [Ec]2 [DB]2 [CA]4 | %8
w: ||||
 [GB]2 [GB]2 [GB]3 [Ac] | [Bd]2 [Ac]2 [Ac]2 [GB]2 | [Ac]2 [Ee]2 [Ed]2 [Ec]2 | [GB]2 [FA]2 G3 A | %12
w: ||||
 [GB]2 [GB]2 [GB]3 [Ac] | [Gd]2 [Ac]2 [Ac]2 [GB]2 | [Ge]2 [Ac]2 [GB]3 [FA] | [EG]2 [=DF]2 E4 | %16
w: ||||
 [CA]2 [CA]2 [CA]3 [DB] | [Ec]2 [DB]2 [CA]2 [CE]2 | [DF]3 [DF] E2 [EA]2 | [EG]2 [EA]2 [EB]4 | %20
w: ||||
 [CA]2 [CA]2 [CA]3 [DB] | [Ec]2 [DB]2 [CA]2 [CE]2 | [DF]2 [FA]2 [Fd]2 [Ec]2 | [Ec]2 [DB]2 [CA]4- | %24
w: ||||
 [CA]4 z4 |] %25
w: |
V:2
 x8 | x8 | x8 | x8 | x8 | x8 | x8 | x8 | x8 | x8 | x8 | z4 E4 | x8 | x8 | x8 | x8 | x8 | x8 | x8 | %19
 x8 | x8 | x8 | x8 | x8 | x8 |] %25
V:3
 A,2 A,2 A,3 A, | A,2 A,2 A,2 A,2 | A,3 A, A,2 C2 | B,2 CA, G,4 | A,2 A,2 A,3 A, | %5
 A,2 A,2 A,2 A,2 | A,2 A,2 A,2 A,2 | A,2 G,2 A,4 | E2 E2 E3 E | E2 E2 E2 E2 | %10
 E2 C2[K:bass] B,2 A,2 | B,2 B,2 B,3[K:treble] C | D2 D2 D3 C | B,2 A,C E2 E2 | B,2 E2 E3 C | %15
 B,2 A,2 G,4 | A,2 A,2 A,3 A, | A,2 A,2 A,2 A,2 | A,3 A, A,2 C2 | B,2 CA, G,4 | A,2 A,2 A,3 A, | %21
 A,2 A,2 A,2 A,2 | A,2 A,2 A,2 A,2 | A,2 G,2 A,4- | A,4 z4 |] %25
V:4
 A,,2 A,,2 A,,3 A,, | A,,2 A,,2 A,,2 A,,2 | D,3 D, C,2 A,,2 | E,2 E,2 E,4 | A,,2 A,,2 A,,3 A,, | %5
 A,,2 A,,2 A,,2 A,,2 | D,2 D,2 D,2 E,2 | E,2 E,2 A,,4 | E,2 E,2 E,3 E, | G,2 A,2 E,2 E,2 | %10
 A,2 A,2 G,2 z2 | E,2 E,2 E,4 | E,2 E,2 E,3 E, | E,2 E,2 E,2 E,2 | E,2 E,2 E,3 A, | z2 B,,2 E,4 | %16
 A,,2 A,,2 A,,3 A,, | A,,2 A,,2 A,,2 A,,2 | D,3 D, C,2 A,,2 | E,2 E,2 E,4 | A,,2 A,,2 A,,3 A,, | %21
 A,,2 A,,2 A,,2 A,,2 | D,2 D,2 D,2 E,2 | E,2 E,2 A,,4- | A,,4 z4 |] %25

